X: 3
T: Darkies' Dream, The
M: 4/4
L: 1/8
R: barndance
K: GMaj
D2 E>F G B3 | A2 GA B d3 | g2 f>e d>BG>A | B2 A>G A2 d2 |
D2 E>F G B3 | A2 GA B d3 | g2 f>e d>BG>A | B>DE>F G2 g2 |
d2 e>f g b3 | a2 ga b d'3 | g'2 f'>e' d'>bg>a | b2 a>g a2 d'2 |
d2 e>f g b3 | a2 ga b d'3 | g'2 f'>e' d'>bg>a | bdef g2 (3def ||
g2 g>a b>g dB | d>ed>B d2 (3def | g2 g>a bg dB | B>AA>B A2 (3def |
g2 g>a b>g dB | d>ed>B d2 (3def | g2 f2 (3efe d2 | (3cdc (3BcB (3ABA G>E |
D2 E>F G B3 | A2 GA B d3 | g2 f>e d>BG>A | B2 A>G A2 d2 |
D2 E>F G B3 | A2 GA B d3 | g2 f>e d>BG>A | B>DE>F G4 |]
